gama.ui.shared/icons_svg/dark/gaml/_unknown.svg

<svg height="18" viewBox="-452.99 -2807.737 24.25 18" width="24.25" xmlns="http://www.w3.org/2000/svg"><g fill="none"><path d="m-450.74535-2795.9914-.08242-.5304c-.13186-.9319.36264-1.9785 1.46704-3.0252 1.15383-1.061 1.58243-1.8064 1.58243-2.6092 0-1.0178-.7253-1.8208-2.3407-1.8208-.7912 0-1.6813.2294-2.22525.6165l-.3956-.6022c.77472-.5303 1.97802-.7743 2.80219-.7743 2.2088 0 3.19781 1.2904 3.19781 2.5234 0 .9749-.56045 1.8066-1.78025 2.9534-1.0714 1.0322-1.4505 1.8495-1.3846 2.6522l.033.6166h-.89013zm-.37912 2.466c0-.4588.36264-.8029.85717-.8029.4945 0 .82415.3441.82415.8029 0 .4158-.32965.7884-.85715.7884-.52747 0-.85714-.3726-.82417-.7884z" fill="#999"/><path d="m-450.74535-2795.9914-.08242-.5304c-.13186-.9319.36264-1.9785 1.46704-3.0252 1.15383-1.061 1.58243-1.8064 1.58243-2.6092 0-1.0178-.7253-1.8208-2.3407-1.8208-.7912 0-1.6813.2294-2.22525.6165l-.3956-.6022c.77472-.5303 1.97802-.7743 2.80219-.7743 2.2088 0 3.19781 1.2904 3.19781 2.5234 0 .9749-.56045 1.8066-1.78025 2.9534-1.0714 1.0322-1.4505 1.8495-1.3846 2.6522l.033.6166h-.89013zm-.37912 2.466c0-.4588.36264-.8029.85717-.8029.4945 0 .82415.3441.82415.8029 0 .4158-.32965.7884-.85715.7884-.52747 0-.85714-.3726-.82417-.7884z" stroke="#999" stroke-linejoin="round" stroke-width=".5"/></g></svg>

<?xml version="1.0" encoding="UTF-8" standalone="no"?>
<!DOCTYPE svg PUBLIC "-//W3C//DTD SVG 1.1//EN" "http://www.w3.org/Graphics/SVG/1.1/DTD/svg11.dtd">
<svg xmlns:dc="http://purl.org/dc/elements/1.1/" xmlns:xl="http://www.w3.org/1999/xlink" version="1.1" xmlns="http://www.w3.org/2000/svg" viewBox="-452.98985 -2807.737 24.25 18" width="24.25" height="18">
  <defs/>
  <g id="SOURCES" stroke-dasharray="none" stroke="none" stroke-opacity="1" fill="none" fill-opacity="1">
    <title>SOURCES</title>
    <g id="SOURCES_New">
      <title>New</title>
      <g id="Group_10482">
        <g id="Graphic_10280"/>
        <g id="Graphic_10279">
          <path d="M -450.74535 -2795.9914 L -450.82777 -2796.5218 C -450.95963 -2797.4537 -450.46513 -2798.5003 -449.36073 -2799.547 C -448.2069 -2800.608 -447.7783 -2801.3534 -447.7783 -2802.1562 C -447.7783 -2803.174 -448.5036 -2803.977 -450.119 -2803.977 C -450.9102 -2803.977 -451.8003 -2803.7476 -452.34425 -2803.3605 L -452.73985 -2803.9627 C -451.96513 -2804.493 -450.76183 -2804.737 -449.93766 -2804.737 C -447.72886 -2804.737 -446.73985 -2803.4466 -446.73985 -2802.2136 C -446.73985 -2801.2387 -447.3003 -2800.407 -448.5201 -2799.2602 C -449.5915 -2798.228 -449.9706 -2797.4107 -449.9047 -2796.608 L -449.8717 -2795.9914 L -450.76183 -2795.9914 Z M -451.12447 -2793.5254 C -451.12447 -2793.9842 -450.76183 -2794.3283 -450.2673 -2794.3283 C -449.7728 -2794.3283 -449.44315 -2793.9842 -449.44315 -2793.5254 C -449.44315 -2793.1096 -449.7728 -2792.737 -450.3003 -2792.737 C -450.82777 -2792.737 -451.15744 -2793.1096 -451.12447 -2793.5254 Z" fill="#999"/>
          <path d="M -450.74535 -2795.9914 L -450.82777 -2796.5218 C -450.95963 -2797.4537 -450.46513 -2798.5003 -449.36073 -2799.547 C -448.2069 -2800.608 -447.7783 -2801.3534 -447.7783 -2802.1562 C -447.7783 -2803.174 -448.5036 -2803.977 -450.119 -2803.977 C -450.9102 -2803.977 -451.8003 -2803.7476 -452.34425 -2803.3605 L -452.73985 -2803.9627 C -451.96513 -2804.493 -450.76183 -2804.737 -449.93766 -2804.737 C -447.72886 -2804.737 -446.73985 -2803.4466 -446.73985 -2802.2136 C -446.73985 -2801.2387 -447.3003 -2800.407 -448.5201 -2799.2602 C -449.5915 -2798.228 -449.9706 -2797.4107 -449.9047 -2796.608 L -449.8717 -2795.9914 L -450.76183 -2795.9914 Z M -451.12447 -2793.5254 C -451.12447 -2793.9842 -450.76183 -2794.3283 -450.2673 -2794.3283 C -449.7728 -2794.3283 -449.44315 -2793.9842 -449.44315 -2793.5254 C -449.44315 -2793.1096 -449.7728 -2792.737 -450.3003 -2792.737 C -450.82777 -2792.737 -451.15744 -2793.1096 -451.12447 -2793.5254 Z" stroke="#999" stroke-linecap="butt" stroke-linejoin="round" stroke-width=".5"/>
        </g>
      </g>
    </g>
  </g>
</svg>
